X:1
T: Glenkindie
C:
R:Strathspey
Q: 128
K:G
M:4/4
L:1/16
|:G,3G G2Bc d3G B4|d4 edcB cA3 A3B|G,3G G2Bc d3G B3d|((3e2f2g2) ((3d2e2c2) BG3 G4|
G,3G G2Bc d3G B4|d4 edcB cA3 A3B|G,3G G2Bc d3G B3d|((3e2f2g2) ((3d2e2c2) BG3 G4|
B,D3 D2EF G3D G4|EA3 A3B c2B2 A2G2|((3B2c2d2) ((3e2f2g2) ((3e2d2c2) ((3B2A2G2) |((3A2B2c2) ((3d2e2c2) BG3 G4|
B,D3 D2EF G3D G4|EA3 A3B c2B2 A2G2|((3B2c2d2) ((3e2f2g2) ((3e2d2c2) ((3B2A2G2) |((3A2B2c2) ((3d2e2c2) BG3 G4:|
